polaris-icons/icons/newicons/FulfillmentOnHoldMajor.svg

<svg width="20" height="20" viewBox="0 0 20 20" fill="none" xmlns="http://www.w3.org/2000/svg">
<path fill-rule="evenodd" clip-rule="evenodd" d="M15.5 8V11.25C15.5 11.6642 15.8358 12 16.25 12C16.6642 12 17 11.6642 17 11.25V7.25C17 7.16403 16.9852 7.07871 16.9563 6.99775L16.4174 5.48874C15.8843 3.99626 14.4706 3 12.8858 3H7.18014C5.64604 3 4.26665 3.93441 3.69764 5.35907L3.0535 6.97181C3.01816 7.0603 3 7.15472 3 7.25V13.25C3 15.3211 4.67893 17 6.75 17H11.25C11.6642 17 12 16.6642 12 16.25C12 15.8358 11.6642 15.5 11.25 15.5H6.75C5.50736 15.5 4.5 14.4926 4.5 13.25V8H15.5ZM7.18014 4.5C6.25968 4.5 5.43205 5.06064 5.09064 5.91544L4.85716 6.5H9.25V4.5H7.18014ZM10.75 4.5V6.5H15.1857L15.0048 5.99324C14.6849 5.09776 13.8367 4.5 12.8858 4.5H10.75Z" fill="black"/>
<path d="M17.25 13.5C17.6642 13.5 18 13.8358 18 14.25V17.25C18 17.6642 17.6642 18 17.25 18C16.8358 18 16.5 17.6642 16.5 17.25V14.25C16.5 13.8358 16.8358 13.5 17.25 13.5Z" fill="black"/>
<path d="M15.25 14.25C15.25 13.8358 14.9142 13.5 14.5 13.5C14.0858 13.5 13.75 13.8358 13.75 14.25V17.25C13.75 17.6642 14.0858 18 14.5 18C14.9142 18 15.25 17.6642 15.25 17.25V14.25Z" fill="black"/>
</svg>

<svg viewBox="0 0 20 20" fill="none" xmlns="http://www.w3.org/2000/svg"><path fill-rule="evenodd" clip-rule="evenodd" d="M15.5 8v3.25a.75.75 0 0 0 1.5 0v-4a.75.75 0 0 0-.044-.252l-.539-1.51a3.75 3.75 0 0 0-3.531-2.488h-5.706a3.75 3.75 0 0 0-3.482 2.36l-.644 1.612a.75.75 0 0 0-.054.278v6a3.75 3.75 0 0 0 3.75 3.75h4.5a.75.75 0 0 0 0-1.5h-4.5a2.25 2.25 0 0 1-2.25-2.25v-5.25h11Zm-8.32-3.5c-.92 0-1.748.56-2.09 1.415l-.233.585h4.393v-2h-2.07Zm3.57 0v2h4.436l-.181-.507a2.25 2.25 0 0 0-2.12-1.493h-2.135Z" fill="#000"/><path d="M17.25 13.5a.75.75 0 0 1 .75.75v3a.75.75 0 0 1-1.5 0v-3a.75.75 0 0 1 .75-.75Z" fill="#000"/><path d="M15.25 14.25a.75.75 0 0 0-1.5 0v3a.75.75 0 0 0 1.5 0v-3Z" fill="#000"/></svg>
